src/pos-icons/google-drive.svg

<svg height="24" viewBox="0 0 24 24" width="24" xmlns="http://www.w3.org/2000/svg"><path d="m7.71 3.5-6.56 11.5 3.43 6 6.55-11.5m-1.4 5.5-3.43 6h13.12l3.43-6m-.57-1-6.86-12h-6.84-.01l6.86 12z"/></svg>

<?xml version="1.0" encoding="UTF-8"?><!DOCTYPE svg PUBLIC "-//W3C//DTD SVG 1.1//EN" "http://www.w3.org/Graphics/SVG/1.1/DTD/svg11.dtd"><svg xmlns="http://www.w3.org/2000/svg" xmlns:xlink="http://www.w3.org/1999/xlink" version="1.1" id="mdi-google-drive" width="24" height="24" viewBox="0 0 24 24"><path d="M7.71,3.5L1.15,15L4.58,21L11.13,9.5M9.73,15L6.3,21H19.42L22.85,15M22.28,14L15.42,2H8.58L8.57,2L15.43,14H22.28Z" /></svg>
